X:51
M:9/8
L:1/8
K:G
|: A2 (D D)FA cBA | {c}B2 (G G)Bd =fed | e2 [Cc]-[Cc] e dgb | c2 [A,A]-[A,2A2]c Bdg |
e2 [Cc] d2 [B,2B]c2 [A,A] | BGB cAG FED | [C2c2]e [B,2B] d [A,2A2] c | BGB cAF G2 [G,G] :|

